X:1
T:Heiliger Geist, 777
T:Heiliger Geist, 777
T:Vollständige Psalmen (Bremen, German
T:Public Domain Courtesy of the Cyber Hymnal™
C:Vollständige Psalmen (Bremen, German
Z:Public Domain
Z:Courtesy of the Cyber Hymnal™
%%score ( 1 2 ) ( 3 4 )
L:1/8
Q:1/4=128
M:3/4
K:G
V:1 treble 
V:2 treble 
V:3 bass 
V:4 bass 
V:1
 [B,E]4 [EG]2 | F4 [E^G]2 | [EA]4 [EG]2 | F6 | [EG]4 [EA]2 | B4 [Gc]2 | [GB]4 [FA]2 | G6 | %8
 [FB]4 [EG]2 | [CF]4 [A,E]2 | [B,E]4 [B,^D]2 | [B,E]6 |] %12
V:2
 x6 | F4 x2 | x6 | (E4 ^D2) | x6 | (E2 D2) x2 | x6 | G6 | x6 | x6 | x6 | x6 |] %12
V:3
 [E,G,]4 [E,B,]2 | [^D,B,]4 [=D,B,]2 | [C,A,]4 [A,,C]2 | [B,,F,]6 | (E,2 B,2) [F,A,]2 | %5
 (G,2 B,2) [A,,E]2 | D4 [D,D]2 | [G,,G,B,]6 | [^D,,^D,B,]4 [E,,E,B,]2 | A,4 [C,E,]2 | %10
 (F,3 G,) [B,,A,]2 | [E,,E,G,]6 |] %12
V:4
 x6 | x6 | x6 | x6 | E,4 x2 | G,4 x2 | (B,,3 C,) x2 | x6 | x6 | (A,,3 B,,) x2 | B,,4 x2 | x6 |] %12

